X:5
T:Rigodon de Gap
T:Lou Coucou
N:Ou rigodon de Charance, du Dauphiné...
R:Rigodon
C:Trad.
A:Gapençais - Hautes-Alpes - France
B:Répertoire "Pays-Gavot"
G:Accordion
%%MIDI program 21 %Accordian
M:2/4
L:1/8
Q:240
K:C
|:[GG,][BG,][dG,][d/G,/]d/| \
K:G
[e/D,/]f/[g/G,/]e/[dG,][dG,]|[GG,][BG,][dG,][d/G,/]e/|[d/G,/]c/[B/G,/]A/[BG,][GG,]|[GG,][BG,][dG,][
d/G,/]d/|[e/D,/]f/[g/G,/]e/[dG,][dG,]| \
[GG,][BG,][dG,][d/G,/]e/|[d/G,/]c/[B/G,/]A/[GG,]G,:|:[G/G,/]B/[G/G,/]B/[BG,][AD,]|[A/D,/]c/[A/D,/]c
/[cD,][BG,]|[e/D,/]f/[g/G,/]e/[dG,][d/G,/]e/| \
[d/G,/]c/[B/G,/]A/[BG,][GG,]|[G/G,/]B/[G/G,/]B/[BG,][AD,]|[A/D,/]c/[A/D,/]c/[cD,][BG,]|[e/D,/]f/[g/G
,/]e/[dG,][d/G,/]e/|[d/G,/]c/[B/G,/]A/[GG,]G,:| \
W:1. Le printemps qui charme la bergère
W:Le printemps ne dure pas longtemps
W:Les beaux jours, amis, ne durent guère
W:Les beaux jours mes frères sont bien courts !
W:
W:Refrain (bissé)
W:Tira rira rire
W:Il vaut mieux en rire
W:Frère venez donc danser le rigodon
W:
W:2. Le printemps réjouit la bergère,
W:Le printemps met la bergère aux champs.
W:Aimable bergère, tu ne danses guère,
W:Le printemps est court, profite des beaux jours
W:
W:3. On sait bien que la jeunesse est brève
W:On sait bien qu'il n'en restera rien
W:Nous passons rapide comme un rêve
W:Nous passons ainsi que nos chansons
W:
W:4. Fraîches fleurs seront bientôt fanées
W:Fraîches fleurs vont perdre leur couleur
W:En passant mesdames les années
W:En passant fuyez d'un pas glissant

